src/assets/img/eye-closed.svg

<svg viewBox="0 0 24 24" fill="#000000" xmlns="http://www.w3.org/2000/svg">
<path fill-rule="evenodd" clip-rule="evenodd" d="M8.21764 18.959C8.74744 19.115 9.30336 18.8119 9.45932 18.2821L10.1857 15.8142C11.3894 16.0615 12.6109 16.0615 13.8146 15.8143L14.5407 18.282C14.6966 18.8118 15.2525 19.115 15.7823 18.9591C16.3121 18.8032 16.6152 18.2473 16.4593 17.7175L15.7208 15.2074C16.7092 14.7775 17.6625 14.1765 18.5641 13.413L20.2609 15.2748C20.6329 15.683 21.2654 15.7123 21.6736 15.3403C22.0818 14.9683 22.1111 14.3358 21.7391 13.9276L19.9957 12.0146C20.6511 11.2825 21.2708 10.4533 21.848 9.52974C22.1407 9.0614 21.9983 8.44445 21.53 8.15174C21.0617 7.85903 20.4447 8.00141 20.152 8.46974C19.4567 9.58221 18.7081 10.5192 17.9278 11.2869C16.7309 12.4644 15.463 13.2404 14.1934 13.6493C12.7433 14.1164 11.2571 14.1164 9.80701 13.6493C8.53734 13.2404 7.26942 12.4644 6.07248 11.2869C5.29207 10.5191 4.54328 9.58218 3.84801 8.46974C3.5553 8.0014 2.93835 7.85903 2.47001 8.15174C2.00168 8.44445 1.8593 9.0614 2.15201 9.52974C2.72933 10.4534 3.34915 11.2825 4.00455 12.0146L2.26095 13.9275C1.88891 14.3357 1.9182 14.9682 2.32637 15.3402C2.73454 15.7123 3.36703 15.683 3.73907 15.2748L5.43615 13.4129C6.33782 14.1764 7.29112 14.7774 8.27954 15.2074L7.54071 17.7174C7.38476 18.2472 7.68783 18.8031 8.21764 18.959Z" fill="#000000"/>
</svg>

<svg viewBox="0 0 24 24" xmlns="http://www.w3.org/2000/svg"><path fill-rule="evenodd" clip-rule="evenodd" d="M8.218 18.959a1 1 0 0 0 1.241-.677l.727-2.468a8.97 8.97 0 0 0 3.629 0l.726 2.468a1 1 0 0 0 1.918-.564l-.738-2.51c.988-.43 1.942-1.031 2.843-1.795l1.697 1.862a1 1 0 0 0 1.478-1.347l-1.743-1.913a18.098 18.098 0 0 0 1.852-2.485 1 1 0 0 0-1.696-1.06c-.695 1.112-1.444 2.05-2.224 2.817-1.197 1.177-2.465 1.953-3.735 2.362a7.04 7.04 0 0 1-4.386 0c-1.27-.409-2.538-1.185-3.735-2.362-.78-.768-1.529-1.705-2.224-2.817a1 1 0 1 0-1.696 1.06 18.103 18.103 0 0 0 1.853 2.485L2.26 13.927a1 1 0 0 0 1.478 1.348l1.697-1.862a11.533 11.533 0 0 0 2.844 1.794l-.74 2.51a1 1 0 0 0 .678 1.242Z"/></svg>
